X:1
T:Title
%%score ( 1 2 ) ( 3 4 )
L:1/8
Q:1/4=90
M:9/8
K:D
V:1 treble nm="Strings 1, Soprano"
V:2 treble 
V:3 bass nm="Strings 1, Bass"
V:4 bass 
V:1
 z3 z2 [DA] DEF | [DA]3 [DA]2 [DA] [DA][FB][Ac] | [Dd]3- [Dd]2 [DB] [DB][Dc][Dd] | %3
w: 1.~I'd~ rath er~ have~|Je sus~ than~ sil ver~ or~|gold;~ * I'd~ rath er~ be~|
 [Ee]3 [Ec]2 [Ec] dc[EB] | [CA]3- [CA]2 [DA] DEF | [DA]3 [DA]2 [DA] GA[EB] | %6
w: His~ than~ have~ rich es~ un|told;~ * I'd~ rath er~ have~|Je sus~ than~ hous es~ or~|
 [DA]3- [DA]2 [DA] DEF | [DA]3 [DB]2 [DF] [EG][DF][CE] |[M:6/8] D6 | [DF]2 [DF] [DF]2 [DF] | %10
w: lands;~ * I'd~ rath er~ be~|led~ by~ His~ nail * pierced~|hand~||
 [CE]3 [DF]2 [EG] | [DF]3 [CA]3 | [Dd]6 | [GB]2 [GB] [GB]2 [Gc] | [Ed]3 [Ee]3 | [Ac]3- [Ac]2 [GB] | %16
w: ||||||
[M:9/8] [FA]3- [FA]2 [DA] DEF | [DA]3 [FA]2 [FA] dc[GB] |[M:6/8] [DA]3- [DA]2 [DF] | %19
w: |||
 [DA]3- [DA]2 [DF] | [CA]3 [EA]3 | D6 |] %22
w: |||
V:2
 x9 | x9 | x9 | z3 z3 .E3 | x9 | z3 z3 .E3 | x9 | x9 |[M:6/8] x6 | x6 | x6 | x6 | x6 | x6 | x6 | %15
 x6 |[M:9/8] x9 | z3 z3 .G3 |[M:6/8] x6 | x6 | x6 | x6 |] %22
V:3
 z3 z2 [A,,A,] [A,,D,][A,,E,][A,,F,] | [D,A,]3 [D,A,]2 [D,A,] [A,,A,][A,,F,][A,,A,] | %2
 D,3- D,2 [D,A,] [B,,F,][B,,F,][B,,F,] | [E,B,]3 [E,B,]2 [E,B,] [E,A,]2 [E,B,] | %4
 [A,,A,]3- [A,,A,]2 [A,,A,] [A,,D,][A,,E,][A,,F,] | z3 z3 .B,3 | %6
 [D,A,]3- [D,A,]2 [D,F,] [A,,F,][A,,G,][D,A,] | A,3 A,2 [F,A,] A,2 A, |[M:6/8] D,6 | %9
 [B,,B,]2 [B,,B,] [B,,F,]2 [B,,F,] | [C,A,]3 [D,B,]2 [E,B,] | [D,B,]3 [C,A,]3 | [B,,B,]6 | %13
 [E,D]2 [E,D] [E,D]2 [E,D] | [E,D]3 [G,C]3 | [F,F]3- [F,F]2 [G,E] | %16
[M:9/8] [F,D]3- [F,D]2 [A,,A,] [A,,A,][A,,A,][A,,A,] | [D,A,]3 [D,F,]2 A, DCB, | %18
[M:6/8] A,3- A,2 [D,A,] | [D,F,]3- [D,F,]2 [D,F,] | [A,,E,]3 [C,G,]3 | [D,F,]6 |] %22
V:4
 x9 | x9 | x9 | x9 | x9 | [D,A,]3 [D,A,]2 [D,A,] E,-[E,A,][E,B,] | x9 | x9 |[M:6/8] x6 | x6 | x6 | %11
 x6 | x6 | x6 | x6 | x6 |[M:9/8] x9 | x9 |[M:6/8] x6 | x6 | x6 | x6 |] %22

